web/assets/img/functions/970_3-on.svg

<svg width="512" height="512" viewBox="0 0 512 512" fill="none" xmlns="http://www.w3.org/2000/svg">
    <g clip-path="url(#clip0_5999_1733)">
        <path fill-rule="evenodd" clip-rule="evenodd"
              d="M14 66C8.47715 66 4 70.4772 4 76V436C4 441.523 8.47715 446 14 446H374H498C503.523 446 508 441.523 508 436V76C508 70.4772 503.523 66 498 66H374H14ZM384 86V426H488V86H384ZM364 86H24V426H364V86Z"
              fill="#282828"/>
        <path fill-rule="evenodd" clip-rule="evenodd"
              d="M184.002 278.781V392.812H204.002V278.786L284.629 359.414L298.771 345.271L218.143 264.643H332.166V244.643H218.141L298.769 164.014L284.627 149.872L204.002 230.497V116.474H184.002V230.502L103.371 149.871L89.229 164.013L169.858 244.643H55.8281V264.643H169.856L89.2266 345.272L103.369 359.415L184.002 278.781Z"
              fill="#12A71E"/>
        <path fill-rule="evenodd" clip-rule="evenodd"
              d="M103.148 478.322C105.006 473.121 110.729 470.411 115.93 472.269C140.313 480.981 166.591 485.73 194.001 485.73C221.41 485.73 247.689 480.981 272.072 472.269C277.273 470.411 282.995 473.121 284.853 478.322C286.712 483.523 284.002 489.245 278.801 491.103C252.289 500.576 223.736 505.73 194.001 505.73C164.266 505.73 135.713 500.576 109.201 491.103C104 489.245 101.29 483.523 103.148 478.322Z"
              fill="#282828"/>
        <path fill-rule="evenodd" clip-rule="evenodd"
              d="M82.6116 473.682C81.1822 468.347 84.348 462.864 89.6827 461.434L120.592 453.152C125.927 451.723 131.41 454.888 132.84 460.223C134.269 465.558 131.103 471.041 125.769 472.471L104.518 478.165L110.212 499.415C111.642 504.75 108.476 510.233 103.141 511.662C97.8066 513.092 92.3233 509.926 90.8938 504.591L82.6116 473.682Z"
              fill="#282828"/>
        <path fill-rule="evenodd" clip-rule="evenodd"
              d="M264.555 33.6801C262.697 38.881 256.974 41.5908 251.773 39.7327C227.39 31.0211 201.112 26.2721 173.702 26.2721C146.293 26.2721 120.014 31.0211 95.6311 39.7327C90.4303 41.5908 84.7078 38.881 82.8496 33.6801C80.9915 28.4792 83.7013 22.7568 88.9022 20.8986C115.415 11.4264 143.967 6.27212 173.702 6.27212C203.437 6.27212 231.99 11.4264 258.502 20.8986C263.703 22.7568 266.413 28.4792 264.555 33.6801Z"
              fill="#282828"/>
        <path fill-rule="evenodd" clip-rule="evenodd"
              d="M285.091 38.3202C286.521 43.6549 283.355 49.1383 278.02 50.5677L247.111 58.8499C241.776 60.2793 236.293 57.1135 234.863 51.7788C233.434 46.4442 236.6 40.9608 241.934 39.5314L263.185 33.8374L257.491 12.587C256.061 7.25233 259.227 1.76896 264.562 0.33954C269.897 -1.08988 275.38 2.07594 276.809 7.41061L285.091 38.3202Z"
              fill="#282828"/>
        <path fill-rule="evenodd" clip-rule="evenodd"
              d="M194 126C122.203 126 64 184.203 64 256C64 327.797 122.203 386 194 386C265.797 386 324 327.797 324 256C324 184.203 265.797 126 194 126ZM44 256C44 173.157 111.157 106 194 106C276.843 106 344 173.157 344 256C344 338.843 276.843 406 194 406C111.157 406 44 338.843 44 256Z"
              fill="#282828"/>
    </g>
    <defs>
        <clipPath id="clip0_5999_1733">
            <rect width="512" height="512" fill="white"/>
        </clipPath>
    </defs>
</svg>

<?xml version="1.0" encoding="utf-8"?>
<!-- Generator: Adobe Illustrator 28.2.0, SVG Export Plug-In . SVG Version: 6.00 Build 0)  -->
<svg version="1.1" id="Calque_1" xmlns="http://www.w3.org/2000/svg" xmlns:xlink="http://www.w3.org/1999/xlink" x="0px" y="0px"
	 viewBox="0 0 512 512" style="enable-background:new 0 0 512 512;" xml:space="preserve">
<style type="text/css">
	.st0{clip-path:url(#SVGID_00000134250781547787165890000010788712612015415174_);}
	.st1{fill-rule:evenodd;clip-rule:evenodd;fill:#282828;}
	.st2{fill-rule:evenodd;clip-rule:evenodd;fill:#33B0DF;}
</style>
<g>
	<defs>
		<rect id="SVGID_1_" y="0" width="512" height="512"/>
	</defs>
	<clipPath id="SVGID_00000119076938998918091010000016908096997699697855_">
		<use xlink:href="#SVGID_1_"  style="overflow:visible;"/>
	</clipPath>
	<g style="clip-path:url(#SVGID_00000119076938998918091010000016908096997699697855_);">
		<path class="st1" d="M14,66C8.5,66,4,70.5,4,76v360c0,5.5,4.5,10,10,10h360h124c5.5,0,10-4.5,10-10V76c0-5.5-4.5-10-10-10H374H14z
			 M384,86v340h104V86H384z M364,86H24v340h340V86z"/>
		<path class="st2" d="M184,278.8v114h20v-114l80.6,80.6l14.1-14.1l-80.6-80.6h114v-20h-114l80.6-80.6l-14.1-14.1L204,230.5v-114
			h-20v114l-80.6-80.6L89.2,164l80.6,80.6h-114v20h114l-80.6,80.6l14.1,14.1L184,278.8z"/>
		<path class="st1" d="M103.1,478.3c1.9-5.2,7.6-7.9,12.8-6.1c24.4,8.7,50.7,13.5,78.1,13.5c27.4,0,53.7-4.7,78.1-13.5
			c5.2-1.9,10.9,0.9,12.8,6.1c1.9,5.2-0.9,10.9-6.1,12.8c-26.5,9.5-55.1,14.6-84.8,14.6s-58.3-5.2-84.8-14.6
			C104,489.2,101.3,483.5,103.1,478.3z"/>
		<path class="st1" d="M82.6,473.7c-1.4-5.3,1.7-10.8,7.1-12.2l30.9-8.3c5.3-1.4,10.8,1.7,12.2,7.1c1.4,5.3-1.7,10.8-7.1,12.2
			l-21.3,5.7l5.7,21.2c1.4,5.3-1.7,10.8-7.1,12.2c-5.3,1.4-10.8-1.7-12.2-7.1L82.6,473.7z"/>
		<path class="st1" d="M264.6,33.7c-1.9,5.2-7.6,7.9-12.8,6.1c-24.4-8.7-50.7-13.5-78.1-13.5c-27.4,0-53.7,4.7-78.1,13.5
			c-5.2,1.9-10.9-0.9-12.8-6.1c-1.9-5.2,0.9-10.9,6.1-12.8c26.5-9.5,55.1-14.6,84.8-14.6s58.3,5.2,84.8,14.6
			C263.7,22.8,266.4,28.5,264.6,33.7z"/>
		<path class="st1" d="M285.1,38.3c1.4,5.3-1.7,10.8-7.1,12.2l-30.9,8.3c-5.3,1.4-10.8-1.7-12.2-7.1c-1.4-5.3,1.7-10.8,7.1-12.2
			l21.3-5.7l-5.7-21.3c-1.4-5.3,1.7-10.8,7.1-12.2c5.3-1.4,10.8,1.7,12.2,7.1L285.1,38.3z"/>
		<path class="st1" d="M194,126c-71.8,0-130,58.2-130,130s58.2,130,130,130s130-58.2,130-130S265.8,126,194,126z M44,256
			c0-82.8,67.2-150,150-150s150,67.2,150,150s-67.2,150-150,150S44,338.8,44,256z"/>
	</g>
</g>
</svg>
